packages/ui/src/lib/icons/svg/mixer.svg

<svg xmlns="http://www.w3.org/2000/svg" fill="none" viewBox="0 0 16 16" width="100%" height="100%"><path stroke="currentColor" stroke-width="1.5" d="M4.75 6.5v-5m0 13V8"/><path fill="currentColor" d="M8.25 7h-7V5h7z"/><path stroke="currentColor" stroke-width="1.5" d="M11.25 8.5v-7m0 13v-3"/><path fill="currentColor" d="M14.75 11.5h-7v-2h7z"/></svg>

<svg width="100%" height="100%" viewBox="0 0 16 16" fill="none" xmlns="http://www.w3.org/2000/svg">
<path d="M4.75 6.5L4.75 1.5" stroke="currentColor" stroke-width="1.5"/>
<path d="M4.75 14.5L4.75 8" stroke="currentColor" stroke-width="1.5"/>
<path d="M8.25 7L1.25 7L1.25 5L8.25 5L8.25 7Z" fill="currentColor"/>
<path d="M11.25 8.5L11.25 1.5" stroke="currentColor" stroke-width="1.5"/>
<path d="M11.25 14.5L11.25 11.5" stroke="currentColor" stroke-width="1.5"/>
<path d="M14.75 11.5L7.75 11.5L7.75 9.5L14.75 9.5L14.75 11.5Z" fill="currentColor"/>
</svg>
